X: 2149
T: the BRIG O' DEE
Q: "Strathspey."
R: Strathspey.
%R: strathspey
B: James Kerr "Merry Melodies" v.2 p.18 #149
Z: 2016 John Chambers <jc:trillian.mit.edu>
M: C
L: 1/8
K: D
uA |\
vF<AA>uF vG>vFuE>uD | vF<AA>uG vF>vAd2 |\
vF<AA>uF uG>vFuE>uD | G>A,F>A, E/E/E (TBA) |\
vF<AA>uF vG>vFuE>uD |
vF<AA>uG vF>vAd2 |\
vF>AA>uF vG>vFuE>uD | G>A,F>A, E/E/E B |]|\
cB |\
(A>d) (de/f/) vg>vAuf>uA | g>Af>A (3efd (3cBA |
(A<d) (de/f/) g>fg>b | (3agf (3gfe d2 (dc/B/) |\
(A<d) (de/f/) g>Af>A | g>Af>A e>fg>b |\
(3aga (3def (3gfg (3Bcd | (3efd (3cBA (3ABG (3FED |]
